src/status/symbolic/bluetooth-paired-symbolic.svg

<?xml version="1.0" encoding="UTF-8" standalone="no"?>
<svg
   width="16"
   height="16"
   version="1.1"
   id="svg2"
   sodipodi:docname="bluetooth-paired-symbolic.svg"
   inkscape:version="1.3.2 (091e20ef0f, 2023-11-25)"
   xmlns:inkscape="http://www.inkscape.org/namespaces/inkscape"
   xmlns:sodipodi="http://sodipodi.sourceforge.net/DTD/sodipodi-0.dtd"
   xmlns="http://www.w3.org/2000/svg"
   xmlns:svg="http://www.w3.org/2000/svg">
  <defs
     id="defs2" />
  <sodipodi:namedview
     id="namedview2"
     pagecolor="#ffffff"
     bordercolor="#111111"
     borderopacity="1"
     inkscape:showpageshadow="0"
     inkscape:pageopacity="0"
     inkscape:pagecheckerboard="1"
     inkscape:deskcolor="#d1d1d1"
     inkscape:zoom="50.1875"
     inkscape:cx="8"
     inkscape:cy="8"
     inkscape:window-width="1920"
     inkscape:window-height="1011"
     inkscape:window-x="0"
     inkscape:window-y="0"
     inkscape:window-maximized="1"
     inkscape:current-layer="svg2" />
  <path
     d="M 7.4084374,0.03071939 A 0.56945069,0.56945069 0 0 0 7.1971354,0.07965195 0.56945069,0.56945069 0 0 0 6.8612842,0.59789137 V 6.6166111 L 3.7473836,4.6704233 A 0.56939375,0.56939375 0 0 0 2.9622465,4.8505794 0.56939375,0.56939375 0 0 0 3.1424027,5.6357165 l 3.7188245,2.3242653 v 0.08007 L 3.1424027,10.364318 a 0.56939375,0.56939375 0 0 0 -0.1801562,0.785137 0.56939375,0.56939375 0 0 0 0.7851371,0.180156 L 6.8612842,9.3834229 v 6.0187201 a 0.56945069,0.56945069 0 0 0 0.9475053,0.424824 l 1.3301038,-1.183314 v -0.949726 c 0,-0.250271 0.047901,-0.481456 0.1334545,-0.691722 L 8.0000944,14.134319 V 8.6716693 l 3.1183416,1.9483517 c 0.212908,-0.330727 0.472085,-0.6231674 0.774023,-0.8585434 L 9.0744152,7.9998872 12.857809,5.6355366 a 0.56945069,0.56945069 0 0 0 0.07562,-0.907477 L 7.8088875,0.17290954 A 0.56945069,0.56945069 0 0 0 7.4085353,0.0305611 Z M 8.0000717,1.8656477 11.609914,5.0729288 8.0000717,7.3282975 Z"
     fill="#363636"
     id="path1"
     style="stroke-width:1.13879" />
  <path
     d="m13 10c-1.108 0-2 0.892-2 2-0.554 0-1 0.446-1 1v2c0 0.554 0.446 1 1 1h4c0.554 0 1-0.446 1-1v-2c0-0.554-0.446-1-1-1 0-1.108-0.892-2-2-2zm0 1c0.554 0 1 0.446 1 1h-2c0-0.554 0.446-1 1-1z"
     fill="#363636"
     id="path2" />
</svg>

<?xml version="1.0" encoding="UTF-8"?>
<svg id="svg2" width="16" height="16" version="1.1" xmlns="http://www.w3.org/2000/svg">
 <path id="path1" d="m7.4084 0.030719a0.56945 0.56945 0 0 0-0.2113 0.048933 0.56945 0.56945 0 0 0-0.33585 0.51824v6.0187l-3.1139-1.9462a0.56939 0.56939 0 0 0-0.78514 0.18016 0.56939 0.56939 0 0 0 0.18016 0.78514l3.7188 2.3243v0.08007l-3.7188 2.3243a0.56939 0.56939 0 0 0-0.18016 0.78514 0.56939 0.56939 0 0 0 0.78514 0.18016l3.1139-1.9462v6.0187a0.56945 0.56945 0 0 0 0.94751 0.42482l1.3301-1.1833v-0.94973c0-0.25027 0.047901-0.48146 0.13345-0.69172l-1.2723 1.1321v-5.4626l3.1183 1.9484c0.21291-0.33073 0.47208-0.62317 0.77402-0.85854l-2.818-1.7616 3.7834-2.3644a0.56945 0.56945 0 0 0 0.07562-0.90748l-5.1245-4.5552a0.56945 0.56945 0 0 0-0.40035-0.14235zm0.59163 1.8349 3.6098 3.2073-3.6098 2.2554z" fill="#363636" stroke-width="1.1388"/>
 <path id="path2" d="m13 10c-1.108 0-2 0.892-2 2-0.554 0-1 0.446-1 1v2c0 0.554 0.446 1 1 1h4c0.554 0 1-0.446 1-1v-2c0-0.554-0.446-1-1-1 0-1.108-0.892-2-2-2zm0 1c0.554 0 1 0.446 1 1h-2c0-0.554 0.446-1 1-1z" fill="#363636"/>
</svg>
